X:3327
T:Connachtman's rambles
S:sessions
R:Jig
O:Ireland
M:6/8
K:Bm
A|\
FAA dAA|BAA dAG|FAA dfe|dBB BAG|
F2A dAA|BAB def|gfe f2e|dBB B2::
e|\
fbb faa|fef def|fbb faa|fed e2e|
fbb faa|fef def|gfe f2e|dBB B2:|


